X: 2
T: March Of 1981, The
Z: ceolachan
S: https://thesession.org/tunes/11917#setting30050
R: barndance
M: 4/4
L: 1/8
K: Gmaj
|: Bc |dGBd gedB | AecA E2 A>G | FDFA dced | dcAB B2 B>c |
dGBd g2 f>g | agec A2 f>e | d^c=cA FDEF | A2 G2 G2 :|
|: Bc |d2 G>f gdBc | dBcA G2 AB | cea^g aba=g | f2 d2 d2 B>c |
dBfd BGdB | AecA E2 f>e | d^c=cA FDEF | A2 G2 G2 :|
